X:0229
M:C
L:1/8
Q:1/2=90
K:G
   G3 A GABA |G2E2 Tc4  |E2D2 (DE)(GA)|B2A2 A2 :|
   d3 e dcBA |G2E2 Tc4  |E2D2  DEGA   |B2A2 A2 :|
   GABA GABG |AGFE Tc4  |E2D2  DEGA   |B2A2 A2 :|
   dgfe dcBA |G2E2 Tc4  |E2D2  DEGA   |B2A2 A2 :|

